X: 99
T: Perfunde celi rore
N: Derived from Mar2095-Perfunde_celi_rore.krn
C: Johannes Martini
%%abc-version 2.0
%%abcx-abcm2ps-target-version 5.9.1 (29 Sep 2008)
%%abc-creator hum2abc beta
%%abcx-conversion-date 2019/02/17 07:19:43
%%abc-edited-by Jesse Rodin
%%abc-edited-by Chris Gage 09-11-2014
%%abcx-initial-encoding-date 2014/10/24/
%%humdrum-veritas 2635965858
%%humdrum-veritas-data 2208396058
%%linebreak <none>
%%barnumbers 0
L: 1/4
M: 3/1
Q: 1/2=120
%%staves [1 2 3 4]
V: 1 clef=treble
V: 2 clef=treble-8
V: 3 clef=treble-8
V: 4 clef=bass
K: Bb
[V:1] G8A4- | 
[V:2] d12 | 
[V:3] z12 | 
[V:4] G,8D,3E, | 
[V:1] A4B3AF4 | 
[V:2] c4d2cBA4 | 
[V:3] z12 | 
[V:4] F,4B,,2C,2D,4 | 
[V:1] G4A2BA2G/F/=E2 | 
[V:2] G2B2A2d4^c2 | 
[V:3] z12 | 
[V:4] G,,4D,4z2A,,2 | 
[V:1] D2zd2cBA/G/A2G2 | 
[V:2] d3=ef2g2f2g2 | 
[V:3] z12 | 
[V:4] B,,D,2G,,A,,2G,,2D,2E,2 | 
[V:1] c2B3AG3^F/=E/F2 | 
[V:2] =e2d3GB2A4 | 
[V:3] G12- | 
[V:4] C,2G,6D,4 | 
[V:1] G4D2G3F=ED | 
[V:2] G4B4c4 | 
[V:3] G12 | 
[V:4] G,,8C,4 | 
[V:1] D4z2G4F=E | 
[V:2] F4G4d4 | 
[V:3] B12 | 
[V:4] B,,4G,,8 | 
[V:1] F2D2F2G2A4 | 
[V:2] d2f4=edc4 | 
[V:3] A12 | 
[V:4] D,6E,2F,4 | 
[V:1] B2d4cBA4 | 
[V:2] B2G2B2AG^F4 | 
[V:3] d12- | 
[V:4] B,,6C,2D,4 | 
[V:1] G2B3AG3F=ED | 
[V:2] G4z2D2=E2G2- | 
[V:3] d8c4 | 
[V:4] z2G,,3A,,B,,2C,4 | 
[V:1] D4=E2F3GA2 | 
[V:2] GAB2c2d4c2 | 
[V:3] B4A8 | 
[V:4] F,,4z2D,3E,F,2 | 
[V:1] B2A3GG3^FF=E | 
[V:2] B2d4d2d4 | 
[V:3] G2F2G4A4 | 
[V:4] G,2D,2z2G,,2D,4 | 
[V:1] G4z4G4 | 
[V:2] B2c2e2d2c4 | 
[V:3] G12 | 
[V:4] E,2C,4B,,2C,2B,,A,, | 
[V:1] B2G2c2B2G4 | 
[V:2] B2ce2dd3ccB | 
[V:3] z4z4G4 | 
[V:4] G,,2C,4D,2E,4 | 
[V:1] F6D2F2G2 | 
[V:2] d8z2G2 | 
[V:3] A4B8 | 
[V:4] D,4B,,4G,,4 | 
[V:1] A2GF=E4D4 | 
[V:2] F2G2A4F2B2 | 
[V:3] c8d4 | 
[V:4] z4A,,4B,,4 | 
[V:1] z2d4c2A2B2 | 
[V:2] AGF2B2G2zd2=e | 
[V:3] c2f4=e2d2B2 | 
[V:4] C,2D,2B,,2C,2D,2G,2 | 
[V:1] A4G4A2B2 | 
[V:2] f4B2c2A2G2- | 
[V:3] A2d4=e2d2B2 | 
[V:4] F,2D,2G,2C,2F,2G,2 | 
[V:1] G2F2B2B3AAG | 
[V:2] G2A2Bcd=ef4 | 
[V:3] c2d4B2c4 | 
[V:4] E,2D,2G,4F,4 | 
[V:1] B3GB2c2d2cB | 
[V:2] d4z4d2=e2 | 
[V:3] B6A2G4 | 
[V:4] B,,2G,,4A,,2B,,2C,2 | 
[V:1] A2GB2A/G/F2GB2A | 
[V:2] f2g2f=ed4B2- | 
[V:3] F2B4A2B2d2- | 
[V:4] D,2G,,2z2D,2G,,3A,, | 
[V:1] GF=E2D2G4^F2 | 
[V:2] B2G4d3cd2 | 
[V:3] d2c2B3A/G/A4 | 
[V:4] B,,2C,2G,,4D,4 | 
[V:1] G4z4B4 | 
[V:2] B2G2B2c2d3B | 
[V:3] G12 | 
[V:4] G,,8z2G,2 | 
[V:1] A2G2F2A3G/F/=E2 | 
[V:2] c2B2A4F2G2 | 
[V:3] z12 | 
[V:4] F,2G,2D,2F,3E,/D,/C,2 | 
[V:1] D4z2d4c2- | 
[V:2] B2A2d4B2e2- | 
[V:3] F8G4- | 
[V:4] B,,2D,3C,B,,A,,G,,2C,2- | 
[V:1] cB/A/G2F4z2G2 | 
[V:2] edcB/c/d4B4- | 
[V:3] G4A4G4 | 
[V:4] C,D,E,2D,4E,3D, | 
[V:1] F2D2F2G2A2c2- | 
[V:2] B4B4c4 | 
[V:3] d8A4 | 
[V:4] B,,8F,4- | 
[V:1] cBA2GB2AGFG2 | 
[V:2] f4d6=e2 | 
[V:3] c4B8 | 
[V:4] F,4G,8 | 
[V:1] F2A3GG2^F2=EF | 
[V:2] d2c2f2=e2d2d2- | 
[V:3] A8z2A2 | 
[V:4] D,2F,3E,C,2D,4 | 
[V:1] G4z2A2B2AG | 
[V:2] d2cBA4G2d2- | 
[V:3] B2AGF4G2B2 | 
[V:4] G,,4D,4z2G,,2 | 
[V:1] F4G2B2A4 | 
[V:2] d=ef2=e2df2=e/d/c2 | 
[V:3] A4z2D3=EF2 | 
[V:4] D,4C,2B,,D,2C,/B,,/A,,2 | 
[V:1] z2D3=EF2G2E2 | 
[V:2] B4A2d2B2c2 | 
[V:3] G4A4G4 | 
[V:4] G,,4D,4E,2C,2 | 
[V:1] D2F3=ED4^C2 | 
[V:2] A2d3cBAA4 | 
[V:3] F2A3GF2=E4 | 
[V:4] D,8A,,4 | 
[V:1] D2F3GA2B2c2- | 
[V:2] F2GB2A/G/F2f2g2 | 
[V:3] D4d4d4 | 
[V:4] B,,2G,,2z2D,4G,2 | 
[V:1] cBA2G2G4^F2 | 
[V:2] =e2f3=ed4d2 | 
[V:3] c6B2A4 | 
[V:4] A,2F,4G,2D,4 | 
[V:1] G12 | 
[V:2] d8c4 | 
[V:3] G4z4z4 | 
[V:4] z2G,,3A,,B,,2C,2B,,A,, | 
[V:1] z12 | 
[V:2] B2AGF2G3F=ED | 
[V:3] d8c4 | 
[V:4] G,,4B,,4C,4 | 
[V:1] z12 | 
[V:2] D2z2z4z4 | 
[V:3] B2AGF2G3F=ED | 
[V:4] D,6G,,2C,4 | 
[V:1] z12 | 
[V:2] z12 | 
[V:3] D4G4A2c2 | 
[V:4] B,,3G,,B,,2C,3B,,A,,G,, | 
[V:1] z12 | 
[V:2] z12 | 
[V:3] B2d3cB3AGA | 
[V:4] G,,4B,,2D,2C,4 | 
[V:1] z12 | 
[V:2] z12 | 
[V:3] B4G2B3AF2 | 
[V:4] B,,4E,3D,B,,4- | 
[V:1] z12 | 
[V:2] z12 | 
[V:3] G2A2D2G3^F^F=E | 
[V:4] B,,2C,2D,2G,,2A,,4 | 
[V:1] z12 | 
[V:2] z12 | 
[V:3] G4z2d4c2 | 
[V:4] G,,4G,4F,4 | 
[V:1] z4z4G4 | 
[V:2] z12 | 
[V:3] B2e3dd4c2 | 
[V:4] z2G,4F,2E,4 | 
[V:1] F2B3AA4G2 | 
[V:2] d4c2A2B4 | 
[V:3] d4z4d4- | 
[V:4] D,2B,,2F,4G,4 | 
[V:1] A4G2G4^F2 | 
[V:2] A4B2c2d4 | 
[V:3] d2c2B2G2A4 | 
[V:4] D,2F,2G,2E,2D,4 | 
[V:1] G8z2G2 | 
[V:2] B2e2d2c2cd2c/B/ | 
[V:3] G12 | 
[V:4] E,3D,B,,2C,3B,,G,,2 | 
[V:1] F2G2B2A4G2 | 
[V:2] A2G2d4c3B | 
[V:3] z12 | 
[V:4] D,2G,,2G,F,D,2F,2C,2 | 
[V:1] F2=E3DD4^C2 | 
[V:2] A3GA2D2=E4 | 
[V:3] z12 | 
[V:4] D,2z2A,,2B,,2A,,4 | 
[V:1] D4z2d2c2B2 | 
[V:2] DFGB2c2d=e2d=e | 
[V:3] z4z4G4 | 
[V:4] B,,2G,,3A,,B,,2C,2G,,2 | 
[V:1] A2d3c/B/A2G4 | 
[V:2] f2d2B2z2B2c2 | 
[V:3] F8G4 | 
[V:4] D,2B,,3C,D,2E,4 | 
[V:1] F4B3AG2F2 | 
[V:2] d8d4 | 
[V:3] A2B4G2B2A2 | 
[V:4] D,4G,,6D,2- | 
[V:1] F3D=EFG4^F2 | 
[V:2] A2B2G2d3Bcd | 
[V:3] d4c2B2A4 | 
[V:4] D,2B,,2C,2G,,2D,4 | 
[V:1] G12 ||  
[V:2] B12 ||  
[V:3] G12 ||  
[V:4] G,,12 ||  
[V:1]  [K:Bb] [K:clef=treble][M:2/1]z8 | 
[V:2]  [K:Bb] [K:clef=treble-8][M:2/1]z8 | 
[V:3]  [K:Bb] [K:clef=treble-8][M:2/1]z8 | 
[V:4]  [K:Bb] [K:clef=bass][M:2/1]G,,8 | 
[V:1] z8 | 
[V:2] z8 | 
[V:3] z8 | 
[V:4] A,,4B,,4- | 
[V:1] G8 | 
[V:2] z8 | 
[V:3] z8 | 
[V:4] B,,4C,4 | 
[V:1] A4B4- | 
[V:2] z4d4- | 
[V:3] z8 | 
[V:4] A,,4G,,4 | 
[V:1] B4c4 | 
[V:2] d4=e4 | 
[V:3] z8 | 
[V:4] G,4C,4 | 
[V:1] A4G4- | 
[V:2] f4g4 | 
[V:3] z8 | 
[V:4] D,4G,,2C,2- | 
[V:1] G2^F=EF4 | 
[V:2] =e4d4 | 
[V:3] z8 | 
[V:4] C,B,,C,2D,4 | 
[V:1] G2B3AA2- | 
[V:2] G2d4c2 | 
[V:3] z8 | 
[V:4] E,2D,2F,4 | 
[V:1] AGG4^F2 | 
[V:2] B4A4 | 
[V:3] z8 | 
[V:4] G,4D,4 | 
[V:1] G4B4 | 
[V:2] G2g4f=e | 
[V:3] z8 | 
[V:4] z2G,,3A,,B,,C, | 
[V:1] A4G2F2- | 
[V:2] f4=e2d2- | 
[V:3] z8 | 
[V:4] D,2F,2C,2D,2- | 
[V:1] F2=EDE4 | 
[V:2] d2^c=B^c4 | 
[V:3] z8 | 
[V:4] D,2=E,2A,4 | 
[V:1] D4z2d2- | 
[V:2] d8 | 
[V:3] z8 | 
[V:4] D,2G,4F,E, | 
[V:1] d2c2B2AG | 
[V:2] z4d4 | 
[V:3] z8 | 
[V:4] F,4G,2F,E, | 
[V:1] F2A2G2c2- | 
[V:2] d2c4A2 | 
[V:3] z8 | 
[V:4] D,2F,2z2F,2 | 
[V:1] cBB4A2 | 
[V:2] B2d2c4 | 
[V:3] z8 | 
[V:4] G,2B,2F,4 | 
[V:1] B4A4 | 
[V:2] B4z2F2 | 
[V:3] z8 | 
[V:4] B,,4C,2D,2 | 
[V:1] G4F4 | 
[V:2] B2c2d3=e | 
[V:3] z8 | 
[V:4] E,4D,2B,,2- | 
[V:1] z2A2B2d2- | 
[V:2] f4g4 | 
[V:3] z8 | 
[V:4] B,,C,D,2G,,4 | 
[V:1] d2c2B2A2- | 
[V:2] G2A2B2c2 | 
[V:3] z8 | 
[V:4] z2F,2G,2F,2 | 
[V:1] AGF=ED2B2- | 
[V:2] d2d3cBA | 
[V:3] z8 | 
[V:4] D,3C,B,,A,,G,,2 | 
[V:1] B2AG^F3=E | 
[V:2] G2B2A4 | 
[V:3] z8 | 
[V:4] G,4D,4 | 
[V:1] G8 | 
[V:2] G8 | 
[V:3] G8- | 
[V:4] G,,4C,4 | 
[V:1] z4G4 | 
[V:2] B6c2 | 
[V:3] G8- | 
[V:4] B,,2E,4D,2 | 
[V:1] G6A2 | 
[V:2] d2e4dc | 
[V:3] G8- | 
[V:4] B,,2C,4B,,A,, | 
[V:1] B4c4 | 
[V:2] d4e4 | 
[V:3] G8 | 
[V:4] G,,4C,4 | 
[V:1] d6B2- | 
[V:2] d4g4- | 
[V:3] B8- | 
[V:4] B,,4G,,4 | 
[V:1] B2A2G4 | 
[V:2] g2f2d4- | 
[V:3] B8 | 
[V:4] G,8 | 
[V:1] F4D2F2- | 
[V:2] d2c2A4- | 
[V:3] A8 | 
[V:4] D,8- | 
[V:1] F2G2A4 | 
[V:2] A4F4- | 
[V:3] d8- | 
[V:4] D,8 | 
[V:1] B4A4- | 
[V:2] F2D2F2G2 | 
[V:3] d8 | 
[V:4] B,,4D,4 | 
[V:1] A2GF=E4 | 
[V:2] A8 | 
[V:3] ^c8 | 
[V:4] A,,8 | 
[V:1] D4F4 | 
[V:2] B4A2B2 | 
[V:3] d8 | 
[V:4] z4D,4 | 
[V:1] G4A4 | 
[V:2] c8 | 
[V:3] =e4f4 | 
[V:4] C,4F,4 | 
[V:1] B4d4 | 
[V:2] B4f4- | 
[V:3] d8 | 
[V:4] z2B,,4B,,2 | 
[V:1] c4B4- | 
[V:2] f4d4 | 
[V:3] A4d4- | 
[V:4] F,4G,4 | 
[V:1] B2A2A4- | 
[V:2] f6=e2 | 
[V:3] d4c4 | 
[V:4] D,4F,4 | 
[V:1] A4G4 | 
[V:2] d4=e4 | 
[V:3] B8 | 
[V:4] G,8 | 
[V:1] A8 | 
[V:2] d8 | 
[V:3] A8- | 
[V:4] D,8 | 
[V:1] z4c4 | 
[V:2] c4f4 | 
[V:3] A8 | 
[V:4] F,8 | 
[V:1] B4G4 | 
[V:2] d4=e4 | 
[V:3] B4c4- | 
[V:4] G,4C,4 | 
[V:1] A6GF | 
[V:2] c6B2 | 
[V:3] c4A4 | 
[V:4] F,8 | 
[V:1] G4F4 | 
[V:2] G4A4 | 
[V:3] B2c2d4- | 
[V:4] E,4D,4 | 
[V:1] B6G2 | 
[V:2] B2d4cB | 
[V:3] d4G4 | 
[V:4] B,,4E,4 | 
[V:1] A2B2G4- | 
[V:2] d8- | 
[V:3] F4B4 | 
[V:4] D,4G,,4 | 
[V:1] G2^F=EF4 | 
[V:2] d8 | 
[V:3] A8 | 
[V:4] D,8 | 
[V:1] G6A2 | 
[V:2] e4d4 | 
[V:3] G8- | 
[V:4] z4G,,4 | 
[V:1] B2c2d4- | 
[V:2] B8 | 
[V:3] G8 | 
[V:4] G,,8 | 
[V:1] d4B4 | 
[V:2] d6cB | 
[V:3] z8 | 
[V:4] G,8 | 
[V:1] c4B4- | 
[V:2] A4z2d2 | 
[V:3] z8 | 
[V:4] F,4G,4 | 
[V:1] B2AGF4 | 
[V:2] c3Bd4 | 
[V:3] z8 | 
[V:4] E,4D,4 | 
[V:1] G4B4- | 
[V:2] B4G2B2- | 
[V:3] d8- | 
[V:4] G,,4G,4- | 
[V:1] B4A4 | 
[V:2] B2AG^F4 | 
[V:3] d8 | 
[V:4] G,2F,2D,4 | 
[V:1] G8 | 
[V:2] G4z2G2 | 
[V:3] B4c4 | 
[V:4] E,8 | 
[V:1] F4B4 | 
[V:2] A2B3AGF | 
[V:3] d8 | 
[V:4] D,4G,4 | 
[V:1] c4d4- | 
[V:2] G4F4 | 
[V:3] e4f4 | 
[V:4] E,4D,4 | 
[V:1] d2c2B4- | 
[V:2] f8- | 
[V:3] B4d4 | 
[V:4] z4B,,4 | 
[V:1] B2AGA4 | 
[V:2] f8 | 
[V:3] c8 | 
[V:4] F,8 | 
[V:1] B8 | 
[V:2] d4f4 | 
[V:3] B8- | 
[V:4] B,,8- | 
[V:1] z4F4 | 
[V:2] f2d3cd2 | 
[V:3] B8 | 
[V:4] B,,8 | 
[V:1] G4F4 | 
[V:2] G4A2B2- | 
[V:3] z8 | 
[V:4] E,4D,4 | 
[V:1] B4A2G2- | 
[V:2] Bcd2c2B2 | 
[V:3] z8 | 
[V:4] G,,4A,,2B,,2 | 
[V:1] G2F2G2=E2- | 
[V:2] A4G4 | 
[V:3] z8 | 
[V:4] C,2D,2G,,2C,2- | 
[V:1] EDD4^C2 | 
[V:2] A2F2=E4 | 
[V:3] z8 | 
[V:4] C,2D,2A,,4 | 
[V:1] D4z4 | 
[V:2] D2G4F=E | 
[V:3] z8 | 
[V:4] B,,2G,,4B,,2 | 
[V:1] A4B4 | 
[V:2] F4G4 | 
[V:3] z8 | 
[V:4] A,,4G,,4 | 
[V:1] c2d4c2 | 
[V:2] A2G2B2c2 | 
[V:3] z8 | 
[V:4] z2G,,4A,,2 | 
[V:1] B2AG^F3=E | 
[V:2] d2cBA4 | 
[V:3] z8 | 
[V:4] B,,2C,2D,4 | 
[V:1] G8 | 
[V:2] G8- | 
[V:3] B8- | 
[V:4] G,,8- | 
[V:1] D4G4- | 
[V:2] G4d4- | 
[V:3] B8 | 
[V:4] G,,8 | 
[V:1] G2D2G4 | 
[V:2] d2B2c4 | 
[V:3] G8 | 
[V:4] G,4E,4 | 
[V:1] F4=E4- | 
[V:2] d4c4- | 
[V:3] A8 | 
[V:4] D,4A,,4 | 
[V:1] E2D2D4- | 
[V:2] c2B2A4- | 
[V:3] G4F4 | 
[V:4] C,4D,4 | 
[V:1] D2^C2C2=B,2 | 
[V:2] A4A4 | 
[V:3] =E8 | 
[V:4] A,,8 | 
[V:1] D8 | 
[V:2] F4G2B2- | 
[V:3] D8 | 
[V:4] B,,4G,,4- | 
[V:1] z4d4 | 
[V:2] B2A2B4 | 
[V:3] G8 | 
[V:4] G,,2F,,2G,,4 | 
[V:1] c4A4 | 
[V:2] c4z2c2 | 
[V:3] =E4F4 | 
[V:4] A,,8 | 
[V:1] B6AG | 
[V:2] B2d4d2 | 
[V:3] G8 | 
[V:4] G,,8 | 
[V:1] F4G2B2- | 
[V:2] d8- | 
[V:3] A4B4 | 
[V:4] D,4G,,4 | 
[V:1] B2AGA2c2 | 
[V:2] d4f4- | 
[V:3] G4z4 | 
[V:4] z2G,2F,4 | 
[V:1] B3AA4- | 
[V:2] f4f4 | 
[V:3] d4c4 | 
[V:4] B,,4F,4 | 
[V:1] A2G2G2F2 | 
[V:2] d4=e4 | 
[V:3] B8 | 
[V:4] G,8 | 
[V:1] A4d4- | 
[V:2] f6d2- | 
[V:3] A4B4- | 
[V:4] D,4B,,4 | 
[V:1] d2c2B4 | 
[V:2] d2B4G2 | 
[V:3] B2c2d4 | 
[V:4] G,,4B,,4 | 
[V:1] A6F2- | 
[V:2] A2B2c4 | 
[V:3] c8 | 
[V:4] F,8 | 
[V:1] F2=EDE4 | 
[V:2] d4c4 | 
[V:3] B4G4- | 
[V:4] B,,4C,4 | 
[V:1] D4z2F2 | 
[V:2] B2G2A4 | 
[V:3] G4F4 | 
[V:4] G,,4D,4 | 
[V:1] G2ABA2Bc | 
[V:2] G4z4 | 
[V:3] B4c4 | 
[V:4] G,4F,4 | 
[V:1] B2A2G4- | 
[V:2] d4c4 | 
[V:3] d4G4 | 
[V:4] D,4E,4 | 
[V:1] G2^F=EF4 | 
[V:2] d8 | 
[V:3] A8 | 
[V:4] D,8 | 
[V:1] [M:3/1]G8B4- | 
[V:2] [M:3/1]B8G4 | 
[V:3] [M:3/1]G8d4- | 
[V:4] [M:3/1]G,,12- | 
[V:1] B4A4G4 | 
[V:2] B4F4G4 | 
[V:3] d4c4B4- | 
[V:4] G,,4z4G,,4 | 
[V:1] d4c4B4- | 
[V:2] F4A4B4 | 
[V:3] B4A4G4 | 
[V:4] B,,4F,4G,4 | 
[V:1] B2A2G4F4 | 
[V:2] G6A2B2c2 | 
[V:3] B4c4d4 | 
[V:4] E,8D,4 | 
[V:1] B6A2A2G2 | 
[V:2] d2=e2f6f2 | 
[V:3] B4c8 | 
[V:4] G,4F,8 | 
[V:1] B12 | 
[V:2] d8c4 | 
[V:3] B8z4 | 
[V:4] B,,4G,,6A,,2 | 
[V:1] z12 | 
[V:2] B6A2G4 | 
[V:3] d8c4 | 
[V:4] B,,8C,4 | 
[V:1] z12 | 
[V:2] F4G4D4 | 
[V:3] B6A2G4 | 
[V:4] D,4G,,4B,,4- | 
[V:1] z12 | 
[V:2] z12 | 
[V:3] F4G4D4 | 
[V:4] B,,2A,,2B,,2C,2D,4 | 
[V:1] z12 | 
[V:2] z12 | 
[V:3] G8^F4 | 
[V:4] B,,4A,,8 | 
[V:1] B6AGF4 | 
[V:2] d12- | 
[V:3] G8A4 | 
[V:4] G,,8D,4 | 
[V:1] G8F4 | 
[V:2] d4e4d4 | 
[V:3] B4c4A4 | 
[V:4] G,,4C,4D,4 | 
[V:1] G4=E6D2 | 
[V:2] B4c6B2 | 
[V:3] G8A4 | 
[V:4] E,4C,8 | 
[V:1] D6^C2C2=B,2 | 
[V:2] A4G4A4 | 
[V:3] F4=E8 | 
[V:4] D,4z4A,,4 | 
[V:1] D4z4A4 | 
[V:2] F4B4A4 | 
[V:3] D6=E2F4 | 
[V:4] B,,6C,2D,4 | 
[V:1] B6c2d4 | 
[V:2] G4d8 | 
[V:3] G8B4 | 
[V:4] G,,12 | 
[V:1] G4B6A2 | 
[V:2] =e4f4B4 | 
[V:3] c4d4G4- | 
[V:4] C,4B,,4E,4- | 
[V:1] G4^F6=E2 | 
[V:2] c4d8 | 
[V:3] G4A8 | 
[V:4] E,4D,8 | 
[V:1] G12 |]  
[V:2] d12 |]  
[V:3] G12 |]  
[V:4] G,,12 |]  



